X: 1
T: Balindore
M: 6/8
L: 1/8
R: jig
K: Bmin
B3 fec|cBc BAF|B3 edc|cBA ABc|
B3 fec|cBc BAF|FAF EEE|FAF d2c:|
|:B2c FFF|edc cBA|fef cfe|
cBA ABc|B2c FFF|edc cBA|
[1FAF EEE|FAF d2c:|2BdB AAA|BdB g2a||
|:fag fed|ddd BdA|fag ged|
ddd efe|fag fed|ddd BdA|
[1BdB AAA|BdB g2a:|2BdB AAA|BdB g2f||
